X:1
T:Title
%%score { ( 1 3 ) | ( 2 4 ) }
L:1/8
M:6/8
K:G
V:1 treble nm="Grand Piano"
V:3 treble 
V:2 bass 
V:4 bass 
V:1
 z3 z2[Q:1/4=81] [Bd] | [Bd][Ac][GB] [GB][FA][EG] | [EA][EG][CE] [EG]3 | DDG B2 d | %4
[M:5/8] [FA]-[FA]- [FA]3 |[M:1/8] [Fd] |[M:3/4] [Bd][Ac] [GB][GB] [FA][EG] | %7
 [EA][EG] [CE] [EG]2 [^DA] |[M:13/16] [EB][EFc][FB][FB][FB]3/2A |[M:5/8] G-G- G3 |[M:1/8] d | %11
[M:3/4] [Fd]4 z2 | [Gd]4 z2 | [DFA][DFd] [DFd][CGe] [DFd][E^c] |[M:5/8] [Fd]-[Fd]- [Fd]3 | %15
[M:1/8] [Fd] |[M:3/4] [Gd]4 z2 | [Ec]4 z2 | %18
[M:13/16] [DGB][EFc][DGB][CFB][DG]3/2[CDA][Q:1/4=78][Q:1/4=76][Q:1/4=73][Q:1/4=71][Q:1/4=68][Q:1/4=66][Q:1/4=63] | %19
[M:3/4] G6 |] %20
V:2
 z3 z2 [G,B,] | [G,B,][G,C][G,D] [G,D][D,B,][E,C] | [C,C][C,C][C,G,] [C,C]3 | %3
 [G,B,][G,B,][K:treble][G,B,D] [G,DG]2 [G,B,G] |[M:5/8][K:bass] [D,C]-[D,C]- [D,C]3 | %5
[M:1/8] [D,A,] |[M:3/4] [G,B,][G,B,] [G,C][G,D] [D,B,][E,C] | [C,C][C,C] [C,G,] [C,C]2 [C,C] | %8
[M:13/16] [D,D]D,[D,D][D,D][D,D]3/2[D,CD] |[M:5/8][K:treble] [G,B,D]-[G,B,D]- [G,B,D]3 | %10
[M:1/8] [G,DG] |[M:3/4][K:bass] [D,A,]D, D, D,2 [D,C] | [G,B,]G, G, G,2 G, | A,A,, A,,A,, A,,A,, | %14
[M:5/8] D,D,D, D,2 |[M:1/8] [D,A,] |[M:3/4] [G,B,]G, G,[K:treble] [G,DG]2 [G,B,=F] | %17
 [C,C]C, C, C,2 [C,A,] |[M:13/16] D,D,D,D,D,3/2D, |[M:3/4] z2 C .B,3 |] %20
V:3
 x6 | x6 | x6 | x6 |[M:5/8] x5 |[M:1/8] x |[M:3/4] x6 | x6 |[M:13/16] x13/2 |[M:5/8] x5 | %10
[M:1/8] x |[M:3/4] z A, A, [DFA]2 [Fd] | z B, B, [DGB]2 [DGB] | x6 |[M:5/8] DA,B, C2 |[M:1/8] x | %16
[M:3/4] z B, B, B2 d | z C C [CEA]2 [Ec] |[M:13/16] x13/2 |[M:3/4] [B,D]2 E .D3 |] %20
V:4
 x6 | x6 | x6 | x2[K:treble] x4 |[M:5/8][K:bass] x5 |[M:1/8] x |[M:3/4] x6 | x6 |[M:13/16] x13/2 | %9
[M:5/8][K:treble] x5 |[M:1/8] x |[M:3/4][K:bass] x6 | x6 | x6 |[M:5/8] x5 |[M:1/8] x | %16
[M:3/4] x3[K:treble] x3 | x6 |[M:13/16] x13/2 |[M:3/4] G,,6 |] %20

